X:25
T: SCHLAF KINDCHEN SCHLAF DEIN VATER IST EIN SCHAF
N: K0108
O: Europa, Mitteleuropa, Deutschland, Hessen, Alsfeld
R: Kinder -, Wiegen - Lied
M: 4/4
L: 1/8
K: F
 | A4G2G2 | F4z2
GA | B2B2A2c2 | G4z2
FA | c2c2f2d2 | d2c2c4 |
A3GB2G2 | F2E2F4

